X: 59
T: Maggie Brown's Favorite
T: Margaret Brown's Favorite Jig
C: Nathanial Gow
M: 6/8
L: 1/8
K: G
|: g | "G"dBG GAB | "C"E2E E2c | "D"AFD DEF | "G"G2G G2g | 
"G"dBG Bcd | "C"E2E E2c | "D7"AFD DEF | "G"GBA G2 :|
g/a/ | "G"bgb "D"afd | "C"efg gfe | "G"dBg dBG | "D"AFD Dga | 
"G"bgb "D"afd | "Em"efg gfe | "D"faf "A7"ge^c | "D"d3 de=f |
 "C"ece "G"dBd | "Am"cac "G"BgB | "Am"Ace "G"dBG | "D"FAF DEF | 
"G"GAB "Em"EFG | "Am"ABc "D"def | "G"gdB "D"cAF | "G"G3 G2 |]
